status/scalable/audio-volume-min.svg

<?xml version="1.0" encoding="UTF-8" standalone="no"?>
<!-- Created with Inkscape (http://www.inkscape.org/) -->

<svg
   xmlns:dc="http://purl.org/dc/elements/1.1/"
   xmlns:cc="http://creativecommons.org/ns#"
   xmlns:rdf="http://www.w3.org/1999/02/22-rdf-syntax-ns#"
   xmlns:svg="http://www.w3.org/2000/svg"
   xmlns="http://www.w3.org/2000/svg"
   xmlns:sodipodi="http://sodipodi.sourceforge.net/DTD/sodipodi-0.dtd"
   xmlns:inkscape="http://www.inkscape.org/namespaces/inkscape"
   width="48"
   height="48"
   id="svg2"
   version="1.1"
   inkscape:version="0.48.4 r9939"
   sodipodi:docname="audio-volume-min.svg">
  <defs
     id="defs4" />
  <sodipodi:namedview
     id="base"
     pagecolor="#000000"
     bordercolor="#666666"
     borderopacity="1.0"
     inkscape:pageopacity="0"
     inkscape:pageshadow="2"
     inkscape:zoom="8.6195123"
     inkscape:cx="15.916933"
     inkscape:cy="28.337332"
     inkscape:document-units="px"
     inkscape:current-layer="layer1"
     showgrid="false"
     showguides="true"
     inkscape:window-width="512"
     inkscape:window-height="417"
     inkscape:window-x="1283"
     inkscape:window-y="146"
     inkscape:window-maximized="0">
    <sodipodi:guide
       position="9,39.000017"
       orientation="30,0"
       id="guide3267" />
    <sodipodi:guide
       position="9,9.0000174"
       orientation="0,30"
       id="guide3269" />
    <sodipodi:guide
       position="39,9.0000174"
       orientation="-30,0"
       id="guide3271" />
    <sodipodi:guide
       position="39,39.000017"
       orientation="0,-30"
       id="guide3273" />
    <sodipodi:guide
       position="28,21.999529"
       orientation="13,0"
       id="guide4255" />
    <sodipodi:guide
       position="28,8.9995291"
       orientation="0,11"
       id="guide4257" />
    <sodipodi:guide
       position="39,8.9995291"
       orientation="-13,0"
       id="guide4259" />
    <sodipodi:guide
       position="39,21.999529"
       orientation="0,-11"
       id="guide4261" />
    <sodipodi:guide
       position="9,39.000017"
       orientation="13,0"
       id="guide4291" />
    <sodipodi:guide
       position="9,26.000017"
       orientation="0,19.000002"
       id="guide4293" />
    <sodipodi:guide
       position="28.000002,26.000017"
       orientation="-13,0"
       id="guide4295" />
    <sodipodi:guide
       position="28.000002,39.000017"
       orientation="0,-19.000002"
       id="guide4297" />
  </sodipodi:namedview>
  <metadata
     id="metadata7">
    <rdf:RDF>
      <cc:Work
         rdf:about="">
        <dc:format>image/svg+xml</dc:format>
        <dc:type
           rdf:resource="http://purl.org/dc/dcmitype/StillImage" />
        <dc:title />
      </cc:Work>
    </rdf:RDF>
  </metadata>
  <g
     inkscape:label="Capa 1"
     inkscape:groupmode="layer"
     id="layer1"
     transform="translate(0,-1004.3622)">
    <rect
       style="fill:none;fill-opacity:1;fill-rule:evenodd;stroke:none"
       id="rect3263"
       width="30"
       height="30"
       x="9"
       y="1013.3622" />
    <path
       style="fill:#34495e;fill-opacity:0.49803922;fill-rule:evenodd;stroke:none"
       d="M 23.994141,9 C 20.066877,9.0002328 16.165567,10.617702 13.390625,13.394531 11.089175,15.697547 9.6005662,18.776905 9.1542969,22 9.0624831,22.663107 9,23.329987 9,24 c 0,3.926674 1.615683,7.828639 4.390625,10.605469 2.774942,2.776829 6.676252,4.394298 10.603516,4.394531 1.354343,8e-5 2.702314,-0.20465 4.005859,-0.570312 2.476418,-0.694671 4.78321,-2.003035 6.603516,-3.822266 C 36.907859,32.304438 38.396819,29.22363 38.84375,26 L 39,26 39,22 38.84375,22 C 38.396819,18.77637 36.907859,15.695562 34.603516,13.392578 32.78321,11.573347 30.476418,10.264982 28,9.5703125 26.696455,9.2046501 25.348484,8.9999197 23.994141,9 z m 0,4 c 1.368775,-8.1e-5 2.731385,0.274051 4.005859,0.773438 1.407102,0.551353 2.706226,1.378731 3.775391,2.447265 1.562667,1.561746 2.618952,3.610373 3.029297,5.779297 L 28,22 l 0,4 6.804688,0 c -0.410345,2.168924 -1.46663,4.217551 -3.029297,5.779297 C 30.706226,32.847831 29.407102,33.675208 28,34.226562 26.725526,34.725949 25.362916,35.000081 23.994141,35 21.114147,34.999829 18.253707,33.813686 16.21875,31.777344 14.183793,29.741002 13,26.879561 13,24 c 0,-0.671131 0.07092,-1.341054 0.195312,-2 0.409343,-2.168334 1.462762,-4.215606 3.023438,-5.777344 C 18.253707,14.186314 21.114147,13.000171 23.994141,13 z"
       transform="translate(0,1004.3622)"
       id="path4325"
       inkscape:connector-curvature="0" />
    <path
       style="fill:#34495e;fill-opacity:1;fill-rule:evenodd;stroke:none"
       d="m 28,15.238281 c -1.63918,0.379775 -3.175383,1.207776 -4.365234,2.398438 C 21.969801,19.302817 21,21.643996 21,24 c 0,2.356004 0.969801,4.697183 2.634766,6.363281 1.189851,1.190662 2.726054,2.018663 4.365234,2.398438 l 0,-17.523438 z"
       transform="translate(0,1004.3622)"
       id="path4225"
       inkscape:connector-curvature="0" />
    <rect
       style="fill:#34495e;fill-opacity:1;fill-rule:evenodd;stroke:none"
       id="rect4237"
       width="4"
       height="7"
       x="19"
       y="1024.8622" />
    <path
       sodipodi:type="arc"
       style="fill:none;fill-opacity:0.64088398;fill-rule:evenodd;stroke:none"
       id="path4242"
       sodipodi:cx="21.999308"
       sodipodi:cy="1028.3622"
       sodipodi:rx="1.0006928"
       sodipodi:ry="1.0000308"
       d="m 23,1028.3622 c 0,0.5523 -0.448025,1 -1.000692,1 -0.552668,0 -1.000693,-0.4477 -1.000693,-1 0,-0.5523 0.448025,-1 1.000693,-1 0.552667,0 1.000692,0.4477 1.000692,1 z" />
  </g>
</svg>

<?xml version="1.0" encoding="UTF-8" standalone="no"?>
<!-- Created with Inkscape (http://www.inkscape.org/) -->

<svg
   xmlns:dc="http://purl.org/dc/elements/1.1/"
   xmlns:cc="http://creativecommons.org/ns#"
   xmlns:rdf="http://www.w3.org/1999/02/22-rdf-syntax-ns#"
   xmlns:svg="http://www.w3.org/2000/svg"
   xmlns="http://www.w3.org/2000/svg"
   xmlns:sodipodi="http://sodipodi.sourceforge.net/DTD/sodipodi-0.dtd"
   xmlns:inkscape="http://www.inkscape.org/namespaces/inkscape"
   width="48"
   height="48"
   id="svg2"
   version="1.1"
   inkscape:version="0.48+devel r12662"
   sodipodi:docname="audio-volume-min.svg">
  <defs
     id="defs4" />
  <sodipodi:namedview
     id="base"
     pagecolor="#000000"
     bordercolor="#666666"
     borderopacity="1.0"
     inkscape:pageopacity="0"
     inkscape:pageshadow="2"
     inkscape:zoom="8.6195123"
     inkscape:cx="15.916933"
     inkscape:cy="28.337332"
     inkscape:document-units="px"
     inkscape:current-layer="layer1"
     showgrid="false"
     showguides="true"
     inkscape:window-width="1366"
     inkscape:window-height="714"
     inkscape:window-x="0"
     inkscape:window-y="30"
     inkscape:window-maximized="1">
    <sodipodi:guide
       position="9,39.000017"
       orientation="30,0"
       id="guide3267" />
    <sodipodi:guide
       position="9,9.0000174"
       orientation="0,30"
       id="guide3269" />
    <sodipodi:guide
       position="39,9.0000174"
       orientation="-30,0"
       id="guide3271" />
    <sodipodi:guide
       position="39,39.000017"
       orientation="0,-30"
       id="guide3273" />
    <sodipodi:guide
       position="28,21.999529"
       orientation="13,0"
       id="guide4255" />
    <sodipodi:guide
       position="28,8.9995291"
       orientation="0,11"
       id="guide4257" />
    <sodipodi:guide
       position="39,8.9995291"
       orientation="-13,0"
       id="guide4259" />
    <sodipodi:guide
       position="39,21.999529"
       orientation="0,-11"
       id="guide4261" />
    <sodipodi:guide
       position="9,39.000017"
       orientation="13,0"
       id="guide4291" />
    <sodipodi:guide
       position="9,26.000017"
       orientation="0,19.000002"
       id="guide4293" />
    <sodipodi:guide
       position="28.000002,26.000017"
       orientation="-13,0"
       id="guide4295" />
    <sodipodi:guide
       position="28.000002,39.000017"
       orientation="0,-19.000002"
       id="guide4297" />
  </sodipodi:namedview>
  <metadata
     id="metadata7">
    <rdf:RDF>
      <cc:Work
         rdf:about="">
        <dc:format>image/svg+xml</dc:format>
        <dc:type
           rdf:resource="http://purl.org/dc/dcmitype/StillImage" />
        <dc:title />
      </cc:Work>
    </rdf:RDF>
  </metadata>
  <g
     inkscape:label="Capa 1"
     inkscape:groupmode="layer"
     id="layer1"
     transform="translate(0,-1004.3622)">
    <rect
       style="fill:none;fill-opacity:1;fill-rule:evenodd;stroke:none"
       id="rect3263"
       width="30"
       height="30"
       x="9"
       y="1013.3622" />
    <path
       style="fill:#ffffff;fill-opacity:0.49803922;fill-rule:evenodd;stroke:none"
       d="M 23.994141 9 C 20.066877 9.0002328 16.165567 10.617702 13.390625 13.394531 C 11.089175 15.697547 9.6005662 18.776905 9.1542969 22 C 9.0624831 22.663107 9 23.329987 9 24 C 9 27.926674 10.615683 31.828639 13.390625 34.605469 C 16.165567 37.382298 20.066877 38.999767 23.994141 39 C 25.348484 39.00008 26.696455 38.79535 28 38.429688 C 30.476418 37.735017 32.78321 36.426653 34.603516 34.607422 C 36.907859 32.304438 38.396819 29.22363 38.84375 26 L 39 26 L 39 22 L 38.84375 22 C 38.396819 18.77637 36.907859 15.695562 34.603516 13.392578 C 32.78321 11.573347 30.476418 10.264982 28 9.5703125 C 26.696455 9.2046501 25.348484 8.9999197 23.994141 9 z M 23.994141 13 C 25.362916 12.999919 26.725526 13.274051 28 13.773438 C 29.407102 14.324791 30.706226 15.152169 31.775391 16.220703 C 33.338058 17.782449 34.394343 19.831076 34.804688 22 L 28 22 L 28 26 L 34.804688 26 C 34.394343 28.168924 33.338058 30.217551 31.775391 31.779297 C 30.706226 32.847831 29.407102 33.675208 28 34.226562 C 26.725526 34.725949 25.362916 35.000081 23.994141 35 C 21.114147 34.999829 18.253707 33.813686 16.21875 31.777344 C 14.183793 29.741002 13 26.879561 13 24 C 13 23.328869 13.070917 22.658946 13.195312 22 C 13.604655 19.831666 14.658074 17.784394 16.21875 16.222656 C 18.253707 14.186314 21.114147 13.000171 23.994141 13 z "
       transform="translate(0,1004.3622)"
       id="path4325" />
    <path
       style="fill:#ffffff;fill-opacity:1;fill-rule:evenodd;stroke:none"
       d="M 28 15.238281 C 26.36082 15.618056 24.824617 16.446057 23.634766 17.636719 C 21.969801 19.302817 21 21.643996 21 24 C 21 26.356004 21.969801 28.697183 23.634766 30.363281 C 24.824617 31.553943 26.36082 32.381944 28 32.761719 L 28 15.238281 z "
       transform="translate(0,1004.3622)"
       id="path4225" />
    <rect
       style="fill:#ffffff;fill-opacity:1;fill-rule:evenodd;stroke:none"
       id="rect4237"
       width="4"
       height="7"
       x="19"
       y="1024.8622" />
    <path
       sodipodi:type="arc"
       style="fill:none;fill-opacity:0.64088398;fill-rule:evenodd;stroke:none"
       id="path4242"
       sodipodi:cx="21.999308"
       sodipodi:cy="1028.3622"
       sodipodi:rx="1.0006928"
       sodipodi:ry="1.0000308"
       d="m 23,1028.3622 c 0,0.5236 -0.476814,1 -1.000449,1 -0.523635,0 -0.99955,-0.4765 -0.99955,-1 0,-0.5236 0.475915,-1 0.99955,-1 0.523635,0 1.000449,0.4764 1.000449,1 z" />
  </g>
</svg>
